actions/scalable/network-disconnect.svg

<?xml version="1.0" encoding="UTF-8" standalone="no"?>
<!-- Created with Inkscape (http://www.inkscape.org/) -->

<svg
   xmlns:dc="http://purl.org/dc/elements/1.1/"
   xmlns:cc="http://creativecommons.org/ns#"
   xmlns:rdf="http://www.w3.org/1999/02/22-rdf-syntax-ns#"
   xmlns:svg="http://www.w3.org/2000/svg"
   xmlns="http://www.w3.org/2000/svg"
   xmlns:sodipodi="http://sodipodi.sourceforge.net/DTD/sodipodi-0.dtd"
   xmlns:inkscape="http://www.inkscape.org/namespaces/inkscape"
   width="22"
   height="22"
   id="svg18109"
   version="1.1"
   inkscape:version="0.48+devel r"
   sodipodi:docname="network-disconnect.svg">
  <defs
     id="defs18111" />
  <sodipodi:namedview
     id="base"
     pagecolor="#ffffff"
     bordercolor="#666666"
     borderopacity="1.0"
     inkscape:pageopacity="0.0"
     inkscape:pageshadow="2"
     inkscape:zoom="25.109089"
     inkscape:cx="11.474264"
     inkscape:cy="11.991993"
     inkscape:document-units="px"
     inkscape:current-layer="layer1"
     showgrid="true"
     inkscape:window-width="1366"
     inkscape:window-height="666"
     inkscape:window-x="-2"
     inkscape:window-y="25"
     inkscape:window-maximized="1"
     inkscape:showpageshadow="false"
     showguides="true">
    <inkscape:grid
       type="xygrid"
       id="grid4122" />
    <sodipodi:guide
       position="3,3.0000174"
       orientation="-16,0"
       id="guide4126" />
    <sodipodi:guide
       position="3,19.000017"
       orientation="0,16"
       id="guide4128" />
    <sodipodi:guide
       position="19,19.000017"
       orientation="16,0"
       id="guide4130" />
    <sodipodi:guide
       position="19,3.0000174"
       orientation="0,-16"
       id="guide4132" />
    <sodipodi:guide
       position="2,2.0000174"
       orientation="-18,0"
       id="guide4134" />
    <sodipodi:guide
       position="2,20.000017"
       orientation="0,18"
       id="guide4136" />
    <sodipodi:guide
       position="20,20.000017"
       orientation="18,0"
       id="guide4138" />
    <sodipodi:guide
       position="20,2.0000174"
       orientation="0,-18"
       id="guide4140" />
  </sodipodi:namedview>
  <metadata
     id="metadata18114">
    <rdf:RDF>
      <cc:Work
         rdf:about="">
        <dc:format>image/svg+xml</dc:format>
        <dc:type
           rdf:resource="http://purl.org/dc/dcmitype/StillImage" />
        <dc:title></dc:title>
      </cc:Work>
    </rdf:RDF>
  </metadata>
  <g
     inkscape:label="Capa 1"
     inkscape:groupmode="layer"
     id="layer1"
     transform="translate(0,-1030.3622)">
    <path
       style="opacity:1;fill:#666666;fill-opacity:1;stroke:none;stroke-width:2.79999995;stroke-miterlimit:4;stroke-dasharray:none;stroke-opacity:0.55026455"
       d="M 18.292969 3 L 11 10.292969 L 11.707031 11 L 19 3.7070312 L 18.292969 3 z M 10.292969 11 L 3 18.292969 L 3.7070312 19 L 11 11.707031 L 10.292969 11 z "
       transform="translate(0,1030.3622)"
       id="rect4149" />
    <path
       style="opacity:1;fill:#666666;fill-opacity:1;stroke:none;stroke-width:2.79999995;stroke-miterlimit:4;stroke-dasharray:none;stroke-opacity:0.55026455"
       d="M 13.292969 5 L 11.292969 7 L 9.5 8.7929688 L 13.207031 12.5 L 15 10.707031 L 17 8.7070312 L 13.292969 5 z M 8.7929688 9.5 L 8 10.292969 L 6 12.292969 L 9.7070312 16 L 11.707031 14 L 12.5 13.207031 L 8.7929688 9.5 z "
       transform="translate(0,1030.3622)"
       id="rect4151" />
  </g>
</svg>

<svg height="22" width="22" xmlns="http://www.w3.org/2000/svg" xmlns:sodipodi="http://sodipodi.sourceforge.net/DTD/sodipodi-0.dtd" xmlns:inkscape="http://www.inkscape.org/namespaces/inkscape">
 <path d="m18.293 3l-7.293 7.293 0.707 0.707 7.293-7.293-0.707-0.707zm-8 8l-7.293 7.293 0.707 0.707 7.293-7.293-0.707-0.707z" fill="#4d4d4d" transform="matrix(1 0 0 1 0 0)"/>
 <path d="m13.293 5l-2 2-1.793 1.793 3.707 3.707 1.793-1.793 2-2-3.707-3.707zm-4.5 4.5l-0.793 0.793-2 2 3.707 3.707 2-2 0.793-0.793-3.707-3.707z" fill="#4d4d4d" transform="matrix(1 0 0 1 0 0)"/>
</svg>
